X:1
T:Title
%%score { ( 1 3 ) | 2 }
L:1/8
M:3/4
K:F
V:1 treble nm="Grand Piano"
V:3 treble 
V:2 bass 
V:1
 z2 z[Q:1/4=90] C DC | A3 [CF] ED | D4 D2 | [DB]3 [DGB] [CFA][CEG] |[M:2/4] [CFc]4 |[M:1/4] [Ec]2 | %6
[M:3/4] [Af]3 [Ac] [_Ae][Ad] | [Ac]>[GB] [FA]2 [Fd]2 | [Fc]3 [FA] [EB][EG] |[M:3/8] F3 | AAA | %11
[M:3/4] B3 G [Ec][EB] | A4 A2 | A3 G F[DG] |[M:9/16] [^CEA]4- [CEA]/ |[M:3/8] cdc | %16
[M:3/4] [Af]3 c e>d | c4 [DFB]2 | [CFA]3 [Fc] [EG][Ec] |[M:2/4] F4 |[M:1/4] CC | %21
[M:3/4] A2 A2 [EA][EG] | F2 F2 FF | d3 d f>d |[M:2/4] c4 |[M:1/4] AA |[M:3/4] B3 [EG] AB | %27
 c2 c2 cd | e3 G A=B |[M:2/4] [Ec]4 |[M:1/4] cc |[M:3/4] c4 z2 | c2 c2 ed | c4 z2 |[M:2/4] d4 | %35
[M:1/4] dd |[M:3/4] d4 z2 | %37
 f2 c2 FG[Q:1/4=89][Q:1/4=87][Q:1/4=86][Q:1/4=85][Q:1/4=83][Q:1/4=82][Q:1/4=81][Q:1/4=79][Q:1/4=78] | %38
 [CA]->[C-FA-] [CFA][Fc] [EG][Ec][Q:1/4=77][Q:1/4=75][Q:1/4=74][Q:1/4=73][Q:1/4=71][Q:1/4=70][Q:1/4=69] | %39
[M:3/8] [A,CF]3 |] %40
V:2
 z2 z [F,A,] [F,B,][F,A,] | [F,CF]3 [A,,F,] [B,,F,B,][B,,F,B,] | [B,,F,B,]4 [B,,F,]2 | %3
 [G,,G,]3 G,, C,B, |[M:2/4] A,4 |[M:1/4] [G,B,]2 |[M:3/4] [F,C]3 [F,C] [F,=B,][F,B,] | %7
 [F,C]>[F,C] [F,C]2 [=B,,_A,]2 | [C,A,]3 [C,C] [C,G,][C,B,] |[M:3/8] [F,A,C]3 | %10
 [F,CF][F,CF][F,CF] |[M:3/4] [G,CE]3 [G,CE] [C,C][C,C] | [F,CF]4 [F,C]2 | %13
 [E,G,^C]3 [E,A,C] [D,A,D]B,, |[M:9/16] A,,4- A,,/ |[M:3/8] [G,B,E][G,B,E][G,B,E] | %16
[M:3/4] [F,C]3 [F,A,F] [F,B,F]>[F,B,F] | [F,A,F]4 B,,2 | C,3 [C,A,] [C,B,][C,B,] | %19
[M:2/4] [F,A,C]4 |[M:1/4] C,C, |[M:3/4] [F,C]2 [F,CF]2 [C,C][C,B,] | %22
 [F,A,C]2 [F,A,C]2 [F,A,][F,A,] | [B,F]3 [B,F] [B,DF]>[B,F] |[M:2/4] [A,CF]4 | %25
[M:1/4][K:bass] [F,CF][F,CF] |[M:3/4] [G,CE]3 [C,C] [CE][K:treble][B,CE] | %27
 [A,CF]2 [A,CF]2 [_A,C^F][A,CF] | [G,CG]3 [G,CE] [G,=B,F][K:bass][G,D] |[M:2/4] [C,C]4 | %30
[M:1/4] z2 |[M:3/4] [F,A,F]>[F,A,] [F,A,][F,A,F] [F,A,F][F,A,F] | [G,B,E]2 [G,B,E]2 z2 | %33
 [A,CF]>[A,C] [A,C][A,CF] [A,CA][A,^CG] |[M:2/4] [B,DF]4 |[M:1/4] z2 | %36
[M:3/4] [=B,F_A]>[B,F] [B,F][B,FA] [B,EA][B,DA] | [CA]2 [CFA]2 D^C | C,>C, C,[C,A,] [C,B,][C,B,] | %39
[M:3/8] [F,,F,]3 |] %40
V:3
 x6 | x6 | x6 | x6 |[M:2/4] x4 |[M:1/4] x2 |[M:3/4] x6 | x6 | x6 |[M:3/8] x3 | x3 |[M:3/4] x6 | %12
 x6 | x6 |[M:9/16] x9/2 |[M:3/8] x3 |[M:3/4] x6 | x6 | x6 |[M:2/4] x4 |[M:1/4] x2 |[M:3/4] x6 | %22
 x6 | x6 |[M:2/4] x4 |[M:1/4] x2 |[M:3/4] x6 | x6 | x6 |[M:2/4] x4 |[M:1/4] x2 | %31
[M:3/4] z z/ F/ Fc dc | x6 | z z/ F/ Fc fe |[M:2/4] x4 |[M:1/4] x2 |[M:3/4] z z/ _A/ Ad ef | x6 | %38
 F2 z2 z2 |[M:3/8] x3 |] %40

